docs/.gitbook/assets/icon-box-16@dark.svg

<svg width="32" height="32" viewBox="0 0 16 16" fill="none" xmlns="http://www.w3.org/2000/svg">
<rect x="0" y="0" width="16" height="16" fill="#181c1f"/>
<path fill-rule="evenodd" clip-rule="evenodd" d="M7.60523 1.1123C7.84711 0.962566 8.15289 0.962566 8.39477 1.1123L13.6448 4.3623C13.8656 4.49901 14 4.74026 14 5V11C14 11.2597 13.8656 11.501 13.6448 11.6377L8.39477 14.8877C8.15289 15.0374 7.84711 15.0374 7.60523 14.8877L2.35523 11.6377C2.13439 11.501 2 11.2597 2 11V5C2 4.74026 2.13439 4.49902 2.35523 4.3623L7.60523 1.1123ZM3.5 6.34636L7.25 8.66779V12.9036L3.5 10.5822V6.34636ZM8.75 12.9036L12.5 10.5822V6.34636L8.75 8.66779V12.9036ZM8 7.36792L11.8251 5L8 2.63208L4.17489 5L8 7.36792Z" fill="#fff"/>
</svg>

<svg xmlns="http://www.w3.org/2000/svg" width="32" height="32" fill="none" viewBox="0 0 16 16"><path fill="#181c1f" d="M0 0h16v16H0z"/><path fill="#fff" fill-rule="evenodd" d="M7.605 1.112a.75.75 0 0 1 .79 0l5.25 3.25A.75.75 0 0 1 14 5v6a.75.75 0 0 1-.355.638l-5.25 3.25a.75.75 0 0 1-.79 0l-5.25-3.25A.75.75 0 0 1 2 11V5a.75.75 0 0 1 .355-.638zM3.5 6.346l3.75 2.322v4.236L3.5 10.582zm5.25 6.558 3.75-2.322V6.346L8.75 8.668zM8 7.368 11.825 5 8 2.632 4.175 5z" clip-rule="evenodd"/></svg>
